X: 402	% 115
T: Sally Goodin
S: Viola Ruth "Pioneer Western Folk Tunes" 1948 p.40 #2
R: reel
Z: 2019 John Chambers <jc:trillian.mit.edu>
N: The rhythms of repeats aren't correct; not fixed.
M: 2/4
L: 1/16
K: G
V: 1 name="115"
|: (3(DEF) |\
GBAG G2G2 | GBAG EG3 | GBAG G2G2 | DDDD EG3 :|
|:\
GABc d2d2 | efge dcBA | GABc d2d2 | DDDD EG3 :|
